**kern	**silbe
*ICvox	*
*G:	*
*M12/8	*
*clefG2	*
4G	Just
8A	a
4c	dream
[8B	_
8B]	_
8A	just
8G	a
=1	=1
4d	dream
[8B	_
4.B]	_
2.r	.
=2	=2
4.r	.
8r	.
8D	All
8G	our
4B	plans
[8B	and
8B]	_
8c	all
[8d	our
=3	=3
4.d]	_
4d	sche-
[8A	-mes
4.A]	_
4.r	.
=4	=4
4r	.
[8D	How
8D]	_
8F#	could
8A	I
4c	think
8r	.
4r	.
8B	you'd
=5	=5
4A	be
8c	mine
4.A	_
2.r	.
=6	=6
4r	.
8D	The
4F#	lies
8A	I'd
4c	tell
8d	my-
4e	-self
8B	each
=7	=7
4e	time
[8d	_
4.d]	_
2.r	.
=8	=8
4r	.
8D	I
4G	know
8A	that
4c	we
[8B	could
8B]	_
8A	ne-
8G	-ver
=9	=9
4d	last
[8B	_
4.B]	_
2.r	.
=10	=10
4r	.
8D	We
4G	just
8A	can't
4B	seem
8B	to,
4r	.
8c	in
=11	=11
4d	the
[8d	past
4d]	_
[8A	_
4.A]	_
4.r	.
=12	=12
4.r	.
4A	Just
8B	a
4c	dream
[8d	I
4d]	_
8c	dream
=13	=13
4B	in
8c	vain
4.A	_
2.r	.
=14	=14
4r	.
8D	With
4F#	you
8A	I'd
4c	on-
8d	-ly
4e	live
8B	in
=15	=15
4e	pain
[8d	_
4.d_	_
4.d]	_
4.r	.
=16	=16
2.r	.
4.r	.
4e	Your
8d	_
=17	=17
4e	pic-
[8c	-ture
4.c]	_
4r	.
[8e	is
8.e]	_
8.c	al-
=18	=18
8.d	-ways
8.e-	with
4.c	me
4.r	.
8r	.
8e	I
8e	can
=19	=19
4e	still
8d	_
8r	.
8e	hear
8e	that
[4.e	same
4e]	_
8d	mourn-
=20	=20
4c	-ful
[8B	song
4.B]	_
4.r	.
4.e	And
=21	=21
8e	now
8d	_
[8c	_
4.c]	_
4r	.
[8e	I
4e]	_
8c	sit
=22	=22
4.d	here
8e-	cry-
8d	_
[8c	_
4.c]	_
4.r	.
=23	=23
4.r	.
4.e	Please
4e	leave
8f#	me
4r	.
8e	a
=24	=24
8f#	lone
8e	_
[8d	_
4.d_	_
2.d]	_
=25	=25
4.r	.
4G	why
8A	_
4c	why
[8B	_
8B]	_
8A	do
8G	I
=26	=26
4d	love
[8B	you
4.B]	_
2.r	.
=27	=27
4r	.
[8D	How
8D]	_
8G	can
8A	I
4B	live
8B	in
4r	.
8c	mi-
=28	=28
4d	-ser-
[8d	-ry
4d]	_
[8A	_
4.A]	_
4.r	.
=29	=29
4r	.
8A	I
4A	know
8B	that
4c	I
[8d	_
4d]	_
8c	won't
=30	=30
4B	for-
8c	-get
4.A	you
2.r	.
=31	=31
4r	.
8D	But
4F#	now
8A	I
4c	know
[8d	it's
4d]	_
8B	too
=32	=32
4A	late
[8B	for
4B]	_
[8G	me
4.G]	_
4.r	.
=33	=33
2.r	.
4.r	.
4e	Your
8d	_
=34	=34
4e	pic-
[8c	-ture
4.c]	_
4r	.
[8e	is
4e]	_
8c	al-
=35	=35
4d	-ways
8e-	with
8e-	me
4c	_
4.r	.
8r	.
8e	I
8e	can
=36	=36
4e	still
8d	_
8r	.
8e	hear
8e	that
[4.e	same
4e]	_
8d	mourn-
=37	=37
4c	-ful
[8B	song
4.B]	_
4.r	.
4.e	And
=38	=38
8e	now
8d	_
[8c	_
4.c]	_
4r	.
[8e	I
4e]	_
8c	sit
=39	=39
4.d	here
4e-	cry-
[8c	_
4.c]	_
4.r	.
=40	=40
4.r	.
4.e	Please
4e	leave
8f#	me
4r	.
8e	a
=41	=41
8f#	lone
8e	_
[8d	_
4.d_	_
2.d]	_
=42	=42
4.r	.
4G	why
8A	_
4c	why
[8B	_
8B]	_
8A	do
8G	I
=43	=43
4d	love
[8B	you
4.B]	_
2.r	.
=44	=44
4r	.
[8D	How
8D]	_
8G	can
8A	I
4B	live
8B	in
4r	.
8c	mi-
=45	=45
4d	-ser-
[8d	-ry
4d]	_
[8A	_
4.A]	_
4.r	.
=46	=46
4r	.
8A	I
4A	know
8B	that
4c	I
[8d	_
4d]	_
8c	won't
=47	=47
4B	for-
8c	-get
4.A	you
2.r	.
=48	=48
4r	.
8D	But
4F#	now
8A	I
4c	know
[8d	it's
8d]	_
8B	too
8A	late
=49	=49
4B	for
[8G	me
4.G]	_
4.r	.
4.r	.
=50	=50
1.r	.
*-	*-
!!!ENC: Nathaniel Condit-Schultz